X: 25354
T: Maple Leaf Two-Step
R: barndance
M: 4/4
K: Cmajor
e2 f2 ^f2|:g4 a4|g2 e2 c4|e3 d c2 E2|G6 c2|
B2 G2 D2 E2|F6 (3DEF|A2 F2 E2 F2|A2 G3 ef^f|
g4 a4|g2 e2 c4|e3 d c2 E2|G6 c2|
B2 G2 D2 E2|F4 F4|G2 Bd gdBd|c4 c4||
G6 ^FG|A2 G2 E2 G2|cG G c2 e a2|g6 ^f2|
f3 g f2 d2|B3 c B2 A2|G3 A G2 F2|E2 G2 ^F2 A2|
G6 ^FG|A2 G2 E2 G2|cG G c2 e a2|g6 ^f2|
f3 g f2 d2|B4 B2 A2|G2 Bd gdBd|c3 z ef^f:|

